X: 765
T: Jianzu
L: 1/8
M: 2/4
K: Bb
c'2c' c' [I:setbarnb 1]| 
b> c' d' f' | 
c'4 | 
d'2d' f' | 
c' d' c' g | 
f4 | 
f2e d | 
c'2 | 
b2a g | 
b4 | 
g b g f | 
e2g3/ d/ | 
c4 |]

@@@ Tune index: 9639
